pro/src/icons/full-next.svg

<svg width="48" height="48" viewBox="0 0 48 48" fill="none" xmlns="http://www.w3.org/2000/svg">
<path id="icon" fill-rule="evenodd" clip-rule="evenodd" d="M24 44C35.0457 44 44 35.0457 44 24C44 12.9543 35.0457 4 24 4C12.9543 4 4 12.9543 4 24C4 35.0457 12.9543 44 24 44ZM24.7527 32.5965C24.108 31.9518 24.108 30.9065 24.7527 30.2618L29.3786 25.6359L14.9458 25.6359C14.0341 25.6359 13.2949 24.8968 13.2949 23.985C13.2949 23.0733 14.0341 22.3341 14.9458 22.3341L29.3485 22.3341L24.7527 17.7383C24.108 17.0936 24.108 16.0483 24.7527 15.4036C25.3975 14.7589 26.4427 14.7589 27.0875 15.4036L34.5166 22.8327C35.1613 23.4774 35.1613 24.5227 34.5166 25.1674L27.0875 32.5965C26.4428 33.2412 25.3975 33.2412 24.7527 32.5965Z" fill="currentColor"/>
</svg>

<svg xmlns="http://www.w3.org/2000/svg" width="48" height="48" fill="none"><path id="icon" fill="currentColor" fill-rule="evenodd" d="M24 44c11.046 0 20-8.954 20-20S35.046 4 24 4 4 12.954 4 24s8.954 20 20 20m.753-11.404a1.65 1.65 0 0 1 0-2.334l4.626-4.626H14.946a1.65 1.65 0 0 1 0-3.302h14.403l-4.596-4.596a1.65 1.65 0 1 1 2.334-2.334l7.43 7.429a1.65 1.65 0 0 1 0 2.334l-7.43 7.43a1.65 1.65 0 0 1-2.334 0" clip-rule="evenodd"/></svg>
